!!!!SEGMENT: pl-wtm--r-1432--003_stefani-jozef--quartetto-menuetto.krn
!!!cenid: 18xx:2451
!!!COM: Stefani, Józef
!!!COM-rismID: pe30024097
!!!CDT: 1800/04/16-1876/03/19
!!!CNT: Polish
!!!OPR: Quartetto
!!!OTL: Menuetto
!!!OMV: 003
!!!PDT: 1825
!!!AGN: Secular; String quartet
!!!SMS-siglum: PL-Wtm
!!!SMS-shelfmark: R 1432
!!!SMS-shelfwork: 001-003 M
!!!SMS-variant:
!!!SMS-altvar:
!!!NIFC-rismSourceID: 1001116254
!!!NIFC-islandoraID: pl-wtm:25598
!!!URL-pdf-islandora: https://repozytorium.nifc.pl/islandora/object/pl-wtm%3A25598/datastream/PDF/view
!!!URL-scan: https://polish.musicsources.pl/pl/lokalizacje/galeria/rekopisy/6250 @EN{Scan on Polish Music Herritage in Open Access Website} @PL{Skany w portalu Dziedzictwo Muzyki Polskiej w otwartym dostępie}
!!!ONB-nifc: UWAGA: części Kwartetu: 1. Allegro moderato, 2. Adagio, 3. Menuetto, 4. Finale
!!!OMD: Presto
!!!AIN: 1 cello 1 viola 2 violn
!!!key:
**kern	**dynam	**kern	**dynam	**kern	**dynam	**kern	**dynam
*part4	*part4	*part3	*part3	*part2	*part2	*part1	*part1
*staff4	*	*staff3	*	*staff2	*	*staff1	*
*Icello	*	*Iviola	*	*Ivioln	*	*Ivioln	*
*I"Violoncello	*	*I"Viole	*	*I"Violino 2.	*	*I"Violino Io	*
*>[A,B,B,C,D,D,A,B,B]	*>[A,B,B,C,D,D,A,B,B]	*>[A,B,B,C,D,D,A,B,B]	*>[A,B,B,C,D,D,A,B,B]	*>[A,B,B,C,D,D,A,B,B]	*>[A,B,B,C,D,D,A,B,B]	*>[A,B,B,C,D,D,A,B,B]	*>[A,B,B,C,D,D,A,B,B]
*>A	*>A	*>A	*>A	*>A	*>A	*>A	*>A
*clefF4	*	*clefC3	*	*clefG2	*	*clefG2	*
*k[b-e-a-]	*	*k[b-e-a-]	*	*k[b-e-a-]	*	*k[b-e-a-]	*
*c:	*	*c:	*	*c:	*	*c:	*
*M3/4	*	*M3/4	*	*M3/4	*	*M3/4	*
*all\right	*	*all\right	*	*all\right	*	*all\right	*
!	!	!LO:TUP:b:problem=klamra łukowa, łuczek zamiast numeru	!	!	!LO:TUP:a:problem=klamra łukowa	!	!LO:DY:rj
4r	.	12G'/L	.	4r	.	12g'/L	f
.	.	12G'/	.	.	.	12g'/	.
.	.	12G'/J	.	.	.	12g'/J	.
=1	=1	=1	=1	=1	=1	=1	=1
4r	.	4c\	.	4r	.	4cc\	.
4r	.	4e-\	.	4r	.	4ee-\	.
!LO:TUP:b:problem=klamra łukowa, łuczek zamiast numeru	!	!	!	!LO:TUP:b:problem=klamra łukowa	!	!	!
12GG'/L	.	4Bn\	.	12g'/L	.	4bn\	.
12GG'/	.	.	.	12g'/	.	.	.
12GG'/J	.	.	.	12g'/J	.	.	.
=2	=2	=2	=2	=2	=2	=2	=2
4C/	.	4c\	.	4cc\	.	4cc\	.
4E-/	.	8c\L	.	4ee-\	.	8cc\L	.
.	.	8e-\J	.	.	.	8ee-\J	.
4BBn/	.	4g\	.	4bn\	.	4gg\	.
=3	=3	=3	=3	=3	=3	=3	=3
4C/	.	4c\	.	4cc\	.	4cc\	.
8C/L	.	4e-\	.	8cc\L	.	4ee-\	.
8E-/J	.	.	.	8ee-\J	.	.	.
4G\	.	4Bn\	.	4gg\	.	4bn\	.
=4	=4	=4	=4	=4	=4	=4	=4
4C/	.	4c\	.	4cc\	.	4cc\	.
4E-/	.	8c\L	.	4ee-\	.	8cc\L	.
.	.	8e-\J	.	.	.	8ee-\J	.
4BBn/	.	4g\	.	4bn\	.	4gg\	.
=5	=5	=5	=5	=5	=5	=5	=5
!	!	!	!	!	!	!	!LO:DY:rj
4GG/	.	4r	p	4r	.	8aa-\L	p
.	.	.	.	.	.	8ff\J	.
4r	.	4g\	.	4d 4Bn/	.	4dd\	.
4G\	.	4r	.	4r	.	4dd\	.
=6	=6	=6	=6	=6	=6	=6	=6
4GG/	.	4r	.	4r	.	8gg\L	.
.	.	.	.	.	.	8ee-\J	.
4r	.	4g\	.	4e- 4c/	.	4cc\	.
4G\	.	4r	.	4r	.	8cc\L	.
.	.	.	.	.	.	8ee-\J	.
=7	=7	=7	=7	=7	=7	=7	=7
!	!LO:HP:a	!	!	!	!LO:HP:a	!	!
4A-\	<	4c\	.	4e- 4c/	<	(8ee-\L	<
.	.	.	.	.	.	8dd\	.
4AA-/	.	4c\	.	4e- 4c/	.	8cc\	.
.	.	.	.	.	.	8dd\	.
(4AA-/	[	4c\	.	4e- 4c/	.	8ee-\	.
.	.	.	.	.	[[	8ff#X\J)	[[
=8	=8	=8	=8	=8	=8	=8	=8
!LO:TX:t=P:problem=diminuendolike accent	!	!	!	!	!	!	!
4GG^>/)	.	4d\	.	4g 4Bn/	.	4gg\	.
4G 4GG/	.	4d 4G^\	.	4g 4B^/	.	4g/	.
*	*	*Xtuplet	*	*	*	*	*
!	!	!	!	!	!	!	!LO:DY:rj
4r	.	12G/L	f	4r	.	12g'/L	f
.	.	12G/	.	.	.	12g'/	.
.	.	12G/J	.	.	.	12g'/J	.
!!LO:LB:g=original
=9	=9	=9	=9	=9	=9	=9	=9
4r	.	4c\	.	4r	.	4cc\	.
4r	.	4e-\	.	4r	.	4ee-\	.
*Xtuplet	*	*	*	*	*	*	*
!	!	!	!	!LO:TUP:b:problem=klamra łukowa, łuczek zamiast numeru	!	!	!
12GG/L	.	4Bn\	.	12g/L	.	4bn\	.
12GG/	.	.	.	12g/	.	.	.
12GG/J	.	.	.	12g/J	.	.	.
=10	=10	=10	=10	=10	=10	=10	=10
4C/	.	4c\	.	4cc\	.	4cc\	.
4E-/	.	8c\L	.	4ee-\	.	8cc\L	.
.	.	8e-\J	.	.	.	8ee-\J	.
4BBn/	.	4g\	.	4bn\	.	4gg\	.
=11	=11	=11	=11	=11	=11	=11	=11
4C/	.	4c\	.	4cc\	.	4cc\	.
8C/L	.	4e-\	.	8cc\L	.	4ee-\	.
8E-/J	.	.	.	8ee-\J	.	.	.
4G\	.	4Bn/	.	4gg\	.	4bn\	.
=12	=12	=12	=12	=12	=12	=12	=12
4C/	.	4c\	.	4cc\	.	4cc\	.
4E-/	.	8c\L	.	4ee-\	.	8cc\L	.
.	.	8e-\J	.	.	.	8ee-\J	.
4BBn/	.	4g\	.	4bn\	.	4gg\	.
=13	=13	=13	=13	=13	=13	=13	=13
!	!LO:DY:rj	!	!	!	!	!LO:TUP:a:problem=klamra łukowa, łuczek zamiast numeru	!LO:DY:rj
4BB-X/	p	4r	.	4r	p	12aa-\L	p
.	.	.	.	.	.	12gg\	.
.	.	.	.	.	.	12aa-\J	.
4r	.	4d\	.	4a- 4B-X/	.	4ff\	.
4BB-/	.	4r	.	4r	.	4ff\	.
=14	=14	=14	=14	=14	=14	=14	=14
!	!	!	!	!	!	!LO:TUP:a:problem=klamra łukowa, łuczek zamiast numeru	!
4BB-/	.	4r	.	4r	.	12bb-\L	.
.	.	.	.	.	.	12aan\	.
.	.	.	.	.	.	12bb-\J	.
4r	.	4e-\	.	4g 4B-/	.	4gg\	.
[4BB-/	.	4r	.	4r	.	4gg\	.
=15	=15	=15	=15	=15	=15	=15	=15
*	*	*	*	*	*	*Xtuplet	*
!	!	!	!LO:DY:rj	!	!LO:DY:rj	!	!
4BB-/]	ff	4d\	ff	4a- 4B-/	ff	12bb-\L	ff
.	.	.	.	.	.	12aan\	.
.	.	.	.	.	.	12bb-\J	.
4BB-/	.	4d\	.	4a- 4B-/	.	12ccc\L	.
.	.	.	.	.	.	12bb-\	.
.	.	.	.	.	.	12ccc\J	.
4BB-/	.	4f\	.	4a- 4B-/	.	12ddd\L	.
.	.	.	.	.	.	12ccc\	.
.	.	.	.	.	.	12ddd\J	.
=16	=16	=16	=16	=16	=16	=16	=16
4E-'\	.	4e-\	.	4g 4B-/	.	4eee-\	.
4EE-'/	.	4r	.	4r	.	4r	.
=!|:	=!|:	=!|:	=!|:	=!|:	=!|:	=!|:	=!|:
*>B	*>B	*>B	*>B	*>B	*>B	*>B	*>B
*tuplet	*	*	*	*	*	*	*
!LO:TUP:b:problem=klamra łukowa, łuczek zamiast numeru	!LO:DY:rj	!	!	!LO:TUP:a:problem=klamra łukowa, łuczek zamiast numeru	!	!	!
12BB-'/L	p	4r	.	12b-'\L	p	4r	.
12BB-'/	.	.	.	12b-'\	.	.	.
12BB-'/J	.	.	.	12b-'\J	.	.	.
=17	=17	=17	=17	=17	=17	=17	=17
*	*	*tuplet	*	*	*	*tuplet	*
4E-\	.	4r	.	4ee-\	.	4r	.
4G\	.	4r	.	4gg\	.	4r	.
!	!	!LO:TUP:b:problem=łuczek zamiast numeru	!LO:DY:rj	!	!	!LO:TUP:a:problem=łuczek zamiast numeru	!LO:DY:rj
4D\	.	12B-'/L	p	4dd\	.	12b-'\L	p
.	.	12B-'/	.	.	.	12b-'\	.
.	.	12B-'/J	.	.	.	12b-'\J	.
!!LO:LB:g=original
=18	=18	=18	=18	=18	=18	=18	=18
4E-\	.	4e-\	.	4ee-\	.	4ee-\	.
8E-\L	.	4g\	.	8ee-\L	.	4gg\	.
8G\J	.	.	.	8gg\J	.	.	.
4BBn/	.	4d\	.	4bn\	.	4dd\	.
=19	=19	=19	=19	=19	=19	=19	=19
4C/	.	4e-\	.	4cc\	.	4ee-\	.
4E-/	.	8e-\L	.	4ee-\	.	8ee-\L	.
.	.	8g\J	.	.	.	8gg\J	.
4BBn/	.	4d\	.	4bn\	.	4dd\	.
=20	=20	=20	=20	=20	=20	=20	=20
4C/	.	4c\	.	4cc\	.	4cc\	.
8C/L	.	4e-\	.	8cc\L	.	4ee-\	.
8E-/J	.	.	.	8ee-\J	.	.	.
4GG/	.	4Bn\	.	4g/	.	4bn\	.
=21	=21	=21	=21	=21	=21	=21	=21
4AA-/	.	4c\	.	4a-/	.	4cc\	.
4C/	.	8c\L	.	4cc/	.	8cc\L	.
.	.	8e-\J	.	.	.	8ee-\J	.
4GG/	.	4Bn/	.	4g/	.	4bn\	.
=22	=22	=22	=22	=22	=22	=22	=22
4AA-/	.	4A-/	.	4a-/	.	4a-/	.
8AA-/L	.	4c/	.	8a-/L	.	4cc/	.
8C/J	.	.	.	8cc/J	.	.	.
4EEn/	.	4G/	.	4en/	.	4g/	.
=23	=23	=23	=23	=23	=23	=23	=23
4FF/	.	4F/	.	4d/	.	4a-/	.
4GG/	.	4G/	.	4d/	.	8bn\L	.
.	.	.	.	.	.	8dd\J	.
(4AA-X/	.	8E-/L	.	(4c/	.	(4ff#X\	.
!	!LO:HP:a	!	!	!	!LO:HP:a	!	!
.	>	8c/J	.	.	>	.	>
=24	=24	=24	=24	=24	=24	=24	=24
4GG/)	]	4d\	.	4Bn/)	]	4gg\)	]
4G 4GG/	.	4d 4G'\	.	4g 4B'^>/	.	4g^|/	.
*	*	*	*	*	*	*Xtuplet	*
!	!	!	!LO:DY:rj	!	!	!	!
4r	.	12G/L	f	4r	.	12g/L	.
.	.	12G/	.	.	.	12g/	f
.	.	12G/J	.	.	.	12g/J	.
=25	=25	=25	=25	=25	=25	=25	=25
4r	.	4c\	.	4r	.	4cc\	.
4r	f	4e-\	.	4r	.	4ee-\	.
*Xtuplet	*	*	*	*Xtuplet	*	*	*
!	!	!	!	!	!LO:DY:rj	!	!
12GG/L	.	4Bn\	.	12g/L	f	4bn\	.
12GG/	.	.	.	12g/	.	.	.
12GG/J	.	.	.	12g/J	.	.	.
=26	=26	=26	=26	=26	=26	=26	=26
4C/	.	4c\	.	4cc\	.	4cc\	.
4E-/	.	8c\L	.	4ee-\	.	8cc\L	.
.	.	8e-\J	.	.	.	8ee-\J	.
4BBn/	.	4g\	.	4bn\	.	4gg\	.
=27	=27	=27	=27	=27	=27	=27	=27
4C/	.	4c\	.	4cc\	.	4cc\	.
8C/L	.	4e-\	.	8cc\L	.	4ee-\	.
8E-/J	.	.	.	8ee-\J	.	.	.
4G\	.	4Bn/	.	4gg\	.	4bn\	.
!!LO:PB:g=original
=28	=28	=28	=28	=28	=28	=28	=28
4C/	.	4c\	.	4cc\	.	4cc\	.
4E-/	.	8c\L	.	4ee-\	.	8cc\L	.
.	.	8e-\J	.	.	.	8ee-\J	.
4BBn/	.	4g\	.	4bn\	.	4gg\	.
=29	=29	=29	=29	=29	=29	=29	=29
*	*	*	*	*	*	*tuplet	*
!	!	!	!	!	!	!LO:TUP:a:problem=klamra łukowa, łuczek zamiast numeru	!LO:DY:rj
4F\	.	4r	.	4r	p	12aa-\L	p
.	.	.	.	.	.	12gg\	.
.	.	.	.	.	.	12aa-\J	.
4r	.	4a-\	.	4dd 4f/	.	4ff\	.
4F\	.	4r	.	4r	.	4ff'\	.
=30	=30	=30	=30	=30	=30	=30	=30
!	!	!	!	!	!	!LO:TUP:a:problem=klamra łukowa, łuczek zamiast numeru	!
4G\	.	4r	.	4r	.	12gg\L	.
.	.	.	.	.	.	12ff#X\	.
.	.	.	.	.	.	12gg\J	.
4r	.	4g\	.	4cc 4e-/	.	4ee-\	.
(>4G\	.	4r	.	4r	.	4ee-\	.
=31	=31	=31	=31	=31	=31	=31	=31
*	*	*	*	*	*	*Xtuplet	*
!	!LO:DY:rj:t=ffo	!	!	!	!LO:DY:rj	!	!LO:DY:rj
4GG/)	ff	4f\	.	4bn 4d/	ff	12gg\L	ff
.	.	.	.	.	.	12ff\	.
.	.	.	.	.	.	12gg\J	.
4GG/	.	4f\	.	4b 4d/	.	12aan\L	.
.	.	.	.	.	.	12gg\	.
.	.	.	.	.	.	12aa\J	.
4GG/	.	4f\	.	4b 4d/	.	12bbn\L	.
.	.	.	.	.	.	12aa\	.
.	.	.	.	.	.	12bb\J	.
=32	=32	=32	=32	=32	=32	=32	=32
4C/	.	4e-\	.	4cc 4e-/	.	4ccc\	.
!	!	!	!	!	!	!LO:TX:a:t=Fin	!
4CC/	.	4r	.	4r	.	4r	.
=:|!;	=:|!	=:|!;	=:|!	=:|!;	=:|!	=:|!;	=:|!
*>C	*>C	*>C	*>C	*>C	*>C	*>C	*>C
*k[b-e-a-d-]	*	*k[b-e-a-d-]	*	*k[b-e-a-d-]	*	*k[a-d-b-e-]	*
*M3/4	*	*M3/4	*	*M3/4	*	*M3/4	*
!	!	!	!	!	!	!LO:TX:a:t=Trio	!
!	!	!	!	!	!	!LO:TX:a:t=stac&colon;	!
4r	.	4r	.	4r	.	4e-'/	.
=33	=33	=33	=33	=33	=33	=33	=33
!	!LO:DY:rj:t=p.	!	!	!	!LO:DY:a	!	!
4AA-/	p	4r	p	4r	p	8a-'\L	.
.	.	.	.	.	.	8cc'\	.
4r	.	4a-\	.	4cc 4e-/	.	8ee-'\	.
.	.	.	.	.	.	8cc'\	.
(4AA-/	.	4a-\	.	4cc 4e-/	.	8aa-'\	.
.	.	.	.	.	.	8ee-'\J	.
=34	=34	=34	=34	=34	=34	=34	=34
4GG/)	.	4r	.	4r	.	8een'\L	.
.	.	.	.	.	.	8ff'\	.
4r	.	4b-\	.	4b- 4e-/	.	8dd-'\	.
.	.	.	.	.	.	8b-'\	.
4r	.	4b-\	.	4b- 4e-/	.	8g'\	.
.	.	.	.	.	.	8b-'\J	.
!!LO:LB:g=original
=35	=35	=35	=35	=35	=35	=35	=35
4EE-/	.	4r	.	4r	.	8g\L	.
.	.	.	.	.	.	8b-\	.
4r	.	4b-\	.	4dd- 4e-/	.	8dd-\	.
.	.	.	.	.	.	8b-\	.
4GG/	.	4b-\	.	4dd- 4e-/	.	8ee-\	.
.	.	.	.	.	.	8dd-\J	.
=36	=36	=36	=36	=36	=36	=36	=36
4AA-/	.	4r	.	4r	.	8bn/L	.
.	.	.	.	.	.	8cc/	.
4r	.	4a-\	.	4cc 4e-/	.	8g/	.
.	.	.	.	.	.	8a-/J	.
!	!	!	!	!	!	!LO:TX:t=P:problem=mixed beam	!
4r	.	4a-\	.	4cc 4e-/	.	8e-/L	.
.	.	.	.	.	.	8ee-\J	.
=37	=37	=37	=37	=37	=37	=37	=37
4AA-/	.	4r	.	4r	.	8a-\L	.
.	.	.	.	.	.	8cc\	.
4r	.	4a-\	.	4cc 4e-/	.	8ee-\	.
.	.	.	.	.	.	8cc\	.
4r	.	4a-\	.	4cc 4e-/	.	8aa-\	.
.	.	.	.	.	.	8ee-\J	.
=38	=38	=38	=38	=38	=38	=38	=38
4A-\	.	4r	.	4r	.	8een\L	.
.	.	.	.	.	.	8ff\	.
4r	.	4c\	.	4f/	.	8gg\	.
.	.	.	.	.	.	8aa-\	.
4r	.	4c\	.	4f/	.	8bb-\	.
.	.	.	.	.	.	8ccc\J	.
=39	=39	=39	=39	=39	=39	=39	=39
4B-\	.	4r	.	4r	.	8bb-\L	.
.	.	.	.	.	.	8ccc\	.
4r	.	4e-\	.	4g 4B-/	.	8bb-\	.
.	.	.	.	.	.	8gg\	.
4BB-/	.	4dn\	.	4a- 4B-/	.	8aa-\	.
.	.	.	.	.	.	8ff\J	.
=40	=40	=40	=40	=40	=40	=40	=40
4E-\	.	4e-\	.	4g 4B-/	.	8ff\L	.
.	.	.	.	.	.	8ee-\	.
4EE-/	.	4e-\	.	4g 4B-/	.	8ddn\	.
.	.	.	.	.	.	8ee-\	.
4r	.	4r	.	4r	.	8dd\	.
.	.	.	.	.	.	8ee-\J	.
=41!|:	=41!|:	=41!|:	=41!|:	=41!|:	=41!|:	=41!|:	=41!|:
*>D	*>D	*>D	*>D	*>D	*>D	*>D	*>D
!	!LO:DY:rj	!	!LO:DY:rj	!	!LO:DY:rj	!	!LO:DY:rj
4AAn'^>/	ff	8g-X^<\L	ff	4e- 4c'^>/	ff	8gg-X^<\L	ff
.	.	8f\	.	.	.	8ff\	.
4AA'^>/	.	8en^<\	.	4e- 4c'^>/	.	8een^<\	.
.	.	8f\	.	.	.	8ff\	.
4AA'^>/	.	8g-^<\	.	4e- 4c'^>/	.	8gg-^<\	.
.	.	8f\J	.	.	.	8ff\J	.
=42	=42	=42	=42	=42	=42	=42	=42
4AAn'^>/	.	8en^<\L	.	4e- 4c'^>/	.	8een^<\L	.
.	.	8f\	.	.	.	8ff\	.
4AA'^>/	.	8g-X^<\	.	4e- 4c'^>/	.	8gg-X^<\	.
.	.	8f\	.	.	.	8ff\	.
4AA'^>/	.	8e^<\	.	4e- 4c'^>/	.	8ee^<\	.
.	.	8f\J	.	.	.	8ff\J	.
=43	=43	=43	=43	=43	=43	=43	=43
!	!LO:DY:a	!	!LO:DY:t=p.	!	!LO:DY:rj	!	!
4BB-/	p	4f\	p	4d-X/	p	8bb-\L	p
.	.	.	.	.	.	8ccc\	.
!	!	!	!	!	!	!LO:TX:a:t=P:problem=♭ above	!
4r	.	4f\	.	4d-/	.	8ddd-X\	.
!	!	!	!	!	!	!LO:TX:a:t=P:problem=♭ above	!
.	.	.	.	.	.	8eee-X\J	.
4BB-/	.	4r	.	4r	.	4fff\	.
!!LO:LB:g=original
=44	=44	=44	=44	=44	=44	=44	=44
4BB-'/	.	8b-\L	.	4d-X/	.	2.r	.
.	.	8cc\	.	.	.	.	.
4BB-'/	.	8dd-\	.	4d-/	.	.	.
.	.	8ee-\J	.	.	.	.	.
4r	.	4ff\	.	4r	.	.	.
=45	=45	=45	=45	=45	=45	=45	=45
!	!LO:DY:rj	!	!	!	!LO:DY:rj	!	!LO:DY:rj
4GG/	ff	8f-X\L	.	4e- 4d-'^>/	ff	8ff-X^<\L	ff
.	.	8e-\	.	.	.	8ee-\	.
4G 4GG'^>/	.	8dn\	.	4e- 4d-'^>/	.	8ddn^<\	.
.	.	8e-\	.	.	.	8ee-\	.
4G 4GG'^>/	.	8f-\	.	4e- 4d-'^>/	.	8ff-^<\	.
.	.	8e-\J	.	.	.	8ee-\J	.
=46	=46	=46	=46	=46	=46	=46	=46
4G 4GG'^>/	.	8dn\L	.	4e- 4d-'^>/	.	8ddn^<\L	.
.	.	8e-\	.	.	.	8ee-\	.
4G 4GG'^>/	.	8f-X\	.	4e- 4d-'^>/	.	8ff-X^<\	.
.	.	8e-\	.	.	.	8ee-\	.
4G 4GG'^>/	.	8d\	.	4e- 4d-'^>/	.	8dd^<\	.
.	.	8e-\J	.	.	.	8ee-\J	.
=47	=47	=47	=47	=47	=47	=47	=47
!	!	!	!LO:DY:rj	!	!LO:DY:rj	!	!
4A-\	p	4e-\	p	4e- 4c/	p	8aa-\L	.
.	.	.	.	.	.	8bb-\	p
4r	.	4e-\	.	4e- 4c/	.	8ccc\	.
.	.	.	.	.	.	8ddd-X\J	.
4AA-/	.	4r	.	4r	.	4eee-\	.
=48	=48	=48	=48	=48	=48	=48	=48
4AA-/	.	8a-\L	.	4e- 4c/	.	2.r	.
.	.	8b-\	.	.	.	.	.
4AA-/	.	8cc\	.	4e- 4c/	.	.	.
!	!	!LO:TX:a:t=P:problem=♭ above	!	!	!	!	!
.	.	8dd-X\J	.	.	.	.	.
4r	.	4ee-\	.	4r	.	.	.
=49	=49	=49	=49	=49	=49	=49	=49
4AA-/	.	4B-/	.	4f 4dn/	.	8ee-\L	<
.	.	.	.	.	.	8ddn\	.
4AA-/	.	4B-/	.	4f 4d/	.	8cc\	.
.	.	.	.	.	.	8dd\	.
4AA-/	.	4B-/	.	4f 4d/	.	8ff\	.
.	.	.	.	.	.	8dd\J	.
=50	=50	=50	=50	=50	=50	=50	=50
4GG/	.	4B-/	.	4e-/	.	8ff\L	.
.	.	.	.	.	.	8ee-\	.
4GG/	.	4B-/	.	4e-/	.	8ddn\	.
.	.	.	.	.	.	8ee-\	.
4GG/	.	4B-/	.	4e-/	.	8gg\	.
.	.	.	.	.	.	8ee-\J	[[
=51	=51	=51	=51	=51	=51	=51	=51
!	!	!	!	!	!	!	!LO:HP:t=cresc
4AA-/	.	4c/	.	4e-/	.	8gg\L	<
.	.	.	.	.	.	8ff\	.
4AA-/	.	4c/	.	4f/	.	8een\	.
.	.	.	.	.	.	8ff\	.
(4AA-/	.	4c/	.	4f/	.	8cc\	.
.	.	.	.	.	.	8ff\J	.
=52	=52	=52	=52	=52	=52	=52	=52
!	!	!	!	!	!	!	!LO:DY:rj
4BB-/)	.	4e-\	.	4g 4B-/	.	8ee-\L	f
.	.	.	.	.	.	8bb-\	.
4B-'\	.	4r	.	4r	.	8gg\	.
.	.	.	.	.	.	8ee-\	.
4BB-'/	.	8dn\L	.	4a- 4B-/	.	8ff\	.
.	.	8f\J	.	.	.	8dd-\J	.
!!LO:PB:g=original
=53	=53	=53	=53	=53	=53	=53	=53
4E-\	.	4e-\	.	4g 4B-/	.	8ff^<\L	.
.	.	.	.	.	.	8ee-\	.
4EE-/	.	4e-\	.	4g 4B-/	.	8ddn^<\	.
.	.	.	.	.	.	8ee-\	.
4r	.	4r	.	4r	.	8ff^<\	.
.	.	.	.	.	.	8ee-\J	.
=54	=54	=54	=54	=54	=54	=54	=54
4E-\	.	4e-\	.	4g 4B-/	.	8ddn^<\L	.
.	.	.	.	.	.	8ee-\	.
4EE-/	.	4e-\	.	4g 4B-/	.	8ff^<\	.
.	.	.	.	.	.	8ee-\	.
4r	.	4r	.	4r	.	8dd^<\	.
.	.	.	.	.	.	8ee-\J	.
=55	=55	=55	=55	=55	=55	=55	=55
*	*	*^	*	*	*	*	*
*2\right	*	*2\right	*	*	*	*	*	*
!	!LO:HP:a	!	!	!LO:HP:a	!	!LO:HP:a	!	!
[2.E-\	>	[2.e-/	2.d-X\	>	[2.g [2.B-/	>	8dd-X/L	.
.	.	.	.	.	.	.	8cc/	.
.	.	.	.	.	.	.	8b-/	.
.	.	.	.	.	.	.	8a-/	.
.	.	.	.	.	.	.	8g/	.
.	]]	.	.	]]	.	]]	8f/J	.
=56	=56	=56	=56	=56	=56	=56	=56	=56
4E-\]	.	4e-/]	4d-\	.	4g] 4B-/]	.	8e-/L	.
.	.	.	.	.	.	.	8dn/	.
4EE-'/	.	4e-/	4d-\	.	4g 4B-'/	.	8e-/	.
.	.	.	.	.	.	.	8en/	.
4r	.	4r	4ryy	.	4r	.	8f/	.
.	.	.	.	.	.	.	8g/J	.
*	*	*v	*v	*	*	*	*	*
=57	=57	=57	=57	=57	=57	=57	=57
!	!LO:DY:a	!	!	!	!	!	!
4AA-/	p	4r	.	4r	p	8a-\L	.
!	!	!	!	!	!	!	!LO:DY:rj
.	.	.	.	.	.	8cc\	p
4r	.	4A-/	.	4e- 4c/	.	8ee-\	.
.	.	.	.	.	.	8cc\	.
(4AA-/	.	4A-/	.	4e- 4c/	.	8aa-\	.
.	.	.	.	.	.	8ee-\J	.
=58	=58	=58	=58	=58	=58	=58	=58
4GG/)	.	4r	.	4r	.	8een\L	.
.	.	.	.	.	.	8ff\	.
!	!	!	!	!	!	!LO:TX:a:t=P:problem=♭ above	!
4r	.	4B-/	.	4e- 4d-/	.	8dd-X\	.
.	.	.	.	.	.	8b-\	.
4r	.	4B-/	.	4e- 4d-/	.	8g\	.
.	.	.	.	.	.	8b-\J	.
=59	=59	=59	=59	=59	=59	=59	=59
4EE-/	.	4r	.	4r	.	8g\L	.
.	.	.	.	.	.	8b-\	.
4r	.	4B-/	.	4e- 4d-/	.	8dd-\	.
.	.	.	.	.	.	8b-\	.
(4GG/	.	4B-/	.	4e- 4d-/	.	8ee-\	.
.	.	.	.	.	.	8dd-\J	.
=60	=60	=60	=60	=60	=60	=60	=60
4AA-/)	.	4r	.	4r	.	8bn\L	.
.	.	.	.	.	.	8cc\	.
4r	.	4A-/	.	4e- 4c/	.	8g\	.
.	.	.	.	.	.	8a-\	.
4r	.	4A-/	.	4e- 4c/	.	8e-\	.
.	.	.	.	.	.	8cc\J	.
!!LO:LB:g=original
=61	=61	=61	=61	=61	=61	=61	=61
4AA-/	.	4r	.	4r	.	8a-\L	.
.	.	.	.	.	.	8cc\	.
4r	.	4A-/	.	4e- 4c/	.	8ee-\	.
.	.	.	.	.	.	8cc\	.
4r	.	4A-/	.	4e- 4c/	.	8aa-\	.
.	.	.	.	.	.	8ee-\J	.
=62	=62	=62	=62	=62	=62	=62	=62
4D-X\	.	4r	.	4r	.	8ff\L	.
.	.	.	.	.	.	8dd-\	.
4r	.	4A-/	.	4f 4d-/	.	8a-\	.
.	.	.	.	.	.	8dd-\	.
4D-\	.	8A-/L	.	4f 4d-/	.	8aa-\	.
.	.	8B-/J	.	.	.	8ff\J	.
=63	=63	=63	=63	=63	=63	=63	=63
4E-\	.	4r	.	4r	.	8ee-\L	.
.	.	.	.	.	.	8ff\	.
4r	.	4c/	.	4e- 4c/	.	8ee-\	.
.	.	.	.	.	.	8cc\	.
(4EE-/	.	4B-/	.	4e- 4d-/	.	8dd-\	.
.	.	.	.	.	.	8b-\J	.
=64	=64	=64	=64	=64	=64	=64	=64
4AA-/)	.	4A-/	.	4e- 4c/	.	4a-/	.
!	!	!LO:TX:a:i:t=Da Capo Menuetto	!	!	!	!	!
4AA-'/	.	4r	.	4r	.	4r	.
==:|!	==:|!	==:|!	==:|!	==:|!	==:|!	==:|!	==:|!
*-	*-	*-	*-	*-	*-	*-	*-
!!!system-decoration: [s1,s2,s3,s4]
!!!RDF**kern: > = above
!!!RDF**kern: < = below
!!!RDF**kern: | = vertical stroke
!!!ENC: Andrzej Kubiczek
!!!END: 2021-06-27
!!!ENC: Tomasz Grochalski
!!!END: 2021-06-21
